svg/fluentui-system-icons/ic_fluent_shield_keyhole_16_regular.svg

<svg width="16" height="16" viewBox="0 0 16 16" fill="none" xmlns="http://www.w3.org/2000/svg">
<path d="M9.25 7.25C9.25 7.76258 8.94148 8.2031 8.5 8.39599V9.50358C8.5 9.77973 8.27614 10.0036 8 10.0036C7.72386 10.0036 7.5 9.77973 7.5 9.50358V8.39599C7.05852 8.2031 6.75 7.76258 6.75 7.25C6.75 6.55964 7.30964 6 8 6C8.69036 6 9.25 6.55964 9.25 7.25ZM7.14309 2.04175C6.78097 2.2883 6.21583 2.61563 5.42482 2.91681C4.6399 3.21566 3.90375 3.36204 3.36353 3.43333C3.09405 3.46889 2.87509 3.48554 2.72547 3.49331C2.6507 3.49719 2.5934 3.49885 2.55593 3.49954L2.50489 3.50003C2.37157 3.49872 2.24323 3.55072 2.14842 3.64449C2.05344 3.73841 2 3.86643 2 4V6.75508C2 9.40779 3.4013 11.8632 5.68525 13.2124L7.74707 14.4305C7.90399 14.5232 8.09891 14.5232 8.2558 14.4304L10.3162 13.2126C12.5993 11.8632 14 9.40823 14 6.7561V4C14 3.86598 13.9462 3.73757 13.8507 3.64358C13.7552 3.54964 13.626 3.49794 13.4921 3.50007L13.4421 3.49981C13.4048 3.49928 13.3478 3.49787 13.2735 3.49426C13.1246 3.48705 12.9066 3.47109 12.6384 3.43602C12.1006 3.36573 11.3679 3.21959 10.5869 2.91771C9.79733 2.61248 9.22913 2.28442 8.86335 2.03774C8.68039 1.91435 8.54795 1.81124 8.46371 1.74141C8.4256 1.70981 8.38768 1.6777 8.35191 1.64343C8.2576 1.55073 8.13037 1.49913 7.99807 1.50001C7.86585 1.50089 7.73916 1.55434 7.64611 1.64819L7.53744 1.74536C7.45475 1.81517 7.32423 1.91842 7.14309 2.04175ZM3 6.75508V4.47725C3.14066 4.46608 3.30705 4.44945 3.49436 4.42473C4.09055 4.34605 4.90577 4.18447 5.78065 3.85136C6.64943 3.52057 7.28362 3.15585 7.70588 2.86835C7.82102 2.78996 7.92034 2.71735 8.00434 2.65277C8.08878 2.71677 8.18861 2.78886 8.30421 2.86682C8.72757 3.15233 9.362 3.51631 10.2264 3.85045C11.0994 4.18794 11.9134 4.34976 12.5088 4.42759C12.6947 4.45189 12.86 4.46809 13 4.47888V6.7561C13 9.05461 11.7861 11.1822 9.80736 12.3518L8.00133 13.4192L6.19388 12.3515C4.21446 11.1821 3 9.0541 3 6.75508Z" fill="#212121"/>
</svg>

<svg xmlns="http://www.w3.org/2000/svg" width="16" height="16"><path d="M9.25 7.25c0 .513-.309.953-.75 1.146v1.108a.5.5 0 1 1-1 0V8.396A1.25 1.25 0 1 1 9.25 7.25ZM7.143 2.042a8.308 8.308 0 0 1-1.718.875 9.266 9.266 0 0 1-2.7.576 5.133 5.133 0 0 1-.17.007h-.05A.5.5 0 0 0 2 4v2.755a7.5 7.5 0 0 0 3.685 6.457l2.062 1.219a.5.5 0 0 0 .509 0l2.06-1.218A7.5 7.5 0 0 0 14 6.756V4a.5.5 0 0 0-.508-.5h-.05a7.886 7.886 0 0 1-.804-.064 8.981 8.981 0 0 1-2.051-.518 8.691 8.691 0 0 1-1.724-.88 5.086 5.086 0 0 1-.4-.297 2.076 2.076 0 0 1-.111-.098.5.5 0 0 0-.706.005l-.109.097c-.082.07-.213.173-.394.297ZM3 6.755V4.477a10.265 10.265 0 0 0 2.78-.626 9.302 9.302 0 0 0 1.926-.983 5.9 5.9 0 0 0 .298-.215c.085.064.185.136.3.214.424.285 1.058.65 1.922.983A9.98 9.98 0 0 0 13 4.48v2.277a6.5 6.5 0 0 1-3.193 5.596L8.001 13.42l-1.807-1.068A6.5 6.5 0 0 1 3 6.755Z"/></svg>
